icon/pk/jinritoutiao.svg

<svg viewBox="0 0 48 48" fill="none" xmlns="http://www.w3.org/2000/svg" height="1em" width="1em">
  <path d="M36.883 44H11.1127C7.19199 44 4 40.808 4 36.883V11.1127C4 7.19199 7.19199 4 11.1127 4H36.883C40.8037 4 43.9957 7.19199 43.9957 11.1127V36.883C44 40.808 40.808 44 36.883 44ZM11.1127 4.30258C7.35819 4.30258 4.30258 7.35819 4.30258 11.1127V36.883C4.30258 40.6418 7.35819 43.6974 11.117 43.6974H36.8873C40.6461 43.6974 43.7017 40.6418 43.7017 36.883V11.1127C43.7017 7.35393 40.6461 4.29832 36.8873 4.29832H11.1127V4.30258Z" fill="black"/>
  <path fill-rule="evenodd" clip-rule="evenodd" d="M4 36.8874L44 34.7949V11.1128L4 13.2053V36.8874ZM24.9629 18.5535L24.9629 18.5535L24.9629 18.5535C24.9629 18.5535 25.8962 19.2311 25.9985 19.2993C26.6647 19.7579 27.5459 20.364 28.9153 20.9932C27.6556 21.3788 26.2061 21.761 24.5332 22.1291V24.4432C27.7245 23.7574 30.2253 22.9796 32.2 22.192C34.1509 22.7558 36.6718 23.2709 39.981 23.6377V21.3236C38.2667 21.1249 36.788 20.8858 35.5072 20.6222C37.3562 19.5714 38.4182 18.606 39.1209 17.9399V17.5864L39.1251 17.5862V15.417L39.1209 15.4172V15.417L38.596 15.4447L29.6218 15.9141L27.2983 14.9524L24.9629 18.5535ZM28.5105 18.1415L35.9854 17.7504C35.1654 18.3491 34.0068 19.0546 32.2705 19.7895C30.5399 19.2368 29.3679 18.6532 28.5105 18.1415ZM16.7119 16.0478L19.1709 15.9199C19.1087 20.541 19.0227 23.3079 18.3506 25.4774L23.4462 25.2102V27.3794L17.3389 27.6979C16.3633 29.2668 14.8464 30.7444 12.4715 32.8387L8.59766 33.0433C8.74154 32.921 8.87935 32.8017 9.01365 32.6855L9.01378 32.6854L9.08775 32.6214C11.476 30.5514 13.1174 29.1275 14.23 27.8601L8.00195 28.1849V26.0199L15.7202 25.6153C16.5809 23.6457 16.6485 20.8981 16.7119 16.0478ZM14.9017 17.4668V19.8874L9.42969 19.3888V16.9724L14.9017 17.4668ZM9.42969 21.0637V23.4843L14.9017 23.983V21.5623L9.42969 21.0637ZM30.9824 26.9861L24.5332 27.3241V25.1549L30.9824 24.8169V23.5822L33.5011 23.4543V24.6849L39.9817 24.3452V26.5144L33.5011 26.8541V31.7433L30.9824 31.8754V26.9861ZM21.0602 28.5898L18.0898 28.7433L20.4764 32.4253L23.4468 32.2719L21.0602 28.5898ZM34.6465 27.8778L37.6126 27.7244L39.9991 31.4064L37.033 31.5599L34.6465 27.8778ZM29.8979 28.125L26.9275 28.2827L24.541 32.2119L27.5114 32.0585L29.8979 28.125Z" fill="black"/>
</svg>

<svg width="48" height="48" fill="none" xmlns="http://www.w3.org/2000/svg"><path d="M36.883 44h-25.77C7.192 44 4 40.808 4 36.883v-25.77C4 7.192 7.192 4 11.113 4h25.77c3.92 0 7.113 3.192 7.113 7.113v25.77C44 40.808 40.808 44 36.883 44ZM11.113 4.303a6.819 6.819 0 0 0-6.81 6.81v25.77a6.82 6.82 0 0 0 6.814 6.814h25.77a6.82 6.82 0 0 0 6.815-6.814v-25.77a6.82 6.82 0 0 0-6.815-6.815H11.113v.005Z" fill="#000"/><path fill-rule="evenodd" clip-rule="evenodd" d="m4 36.887 40-2.092V11.113L4 13.205v23.682Zm20.963-18.334s.933.678 1.035.746c.667.459 1.548 1.065 2.917 1.694-1.26.386-2.709.768-4.382 1.136v2.314c3.191-.686 5.692-1.463 7.667-2.251 1.95.564 4.472 1.079 7.781 1.446v-2.314a51.852 51.852 0 0 1-4.474-.702 17.45 17.45 0 0 0 3.614-2.682v-.354h.004v-2.169h-.004l-.525.028-8.974.47-2.324-.963-2.335 3.601Zm3.547-.412 7.475-.39c-.82.598-1.978 1.304-3.715 2.038-1.73-.552-2.902-1.136-3.76-1.648Zm-11.798-2.093 2.459-.128c-.062 4.621-.148 7.388-.82 9.557l5.095-.267v2.17l-6.107.318c-.976 1.569-2.493 3.046-4.867 5.14l-3.874.205c.144-.122.281-.241.416-.358l.074-.064c2.388-2.07 4.03-3.494 5.142-4.76l-6.228.324V26.02l7.718-.405c.86-1.97.928-4.717.992-9.567Zm-1.81 1.419v2.42L9.43 19.39v-2.417l5.472.495ZM9.43 21.064v2.42l5.472.499v-2.42l-5.472-.5Zm21.552 5.922-6.449.338v-2.17l6.45-.337v-1.235l2.518-.128v1.23l6.48-.339v2.17l-6.48.34v4.888l-2.519.132v-4.889ZM21.06 28.59l-2.97.153 2.386 3.682 2.97-.153-2.386-3.682Zm13.587-.712 2.966-.154 2.386 3.682-2.966.154-2.386-3.682Zm-4.75.247-2.97.158-2.386 3.929 2.97-.154 2.387-3.933Z" fill="#000"/></svg>
